icon-svg/frigate.svg

<svg xmlns="http://www.w3.org/2000/svg" fill="#44739e" viewBox="0 0 24 24"><path d="M6.2 21.739h-.048L6 21.579l-.155-.16-.188-.285-.189-.284-.2-.351-.2-.351-.316-.637-.316-.637-.145-.351-.145-.351-.073-.209L4 17.755l-.1-.4-.1-.4-.066-.329-.066-.329-.055-.385-.055-.384-.025-.34-.026-.34.012-.281.013-.281.056-.1.056-.1.1-.089.1-.089.224-.133.224-.134.27-.128.271-.128.364-.155.364-.154.756-.289.755-.29.33-.133.329-.132.165-.083.164-.083.05-.046.049-.047v-.058l-.04-.015-.041-.037L8 11.836l-.074-.023-.591-.013-.594-.015-.059-.038-.059-.039v-.089l.094-.041.093-.04.327-.048.327-.048.123-.032.123-.032.112-.051.111-.051.24-.241.24-.241.187-.094.187-.09.223-.077.223-.077.1-.048.1-.048.1-.075.1-.076.121-.183.121-.182.125-.271.13-.273.1-.274.1-.274.073-.253.074-.253.027-.136.027-.137-.01-.119-.01-.118-.06-.123-.06-.123-.123-.16-.124-.159-.338-.359-.338-.359-.064-.1-.064-.1v-.161L9.41 6l.063-.088.173-.112.172-.116.263-.126.264-.127.362-.154.362-.154.571-.236.571-.235.384-.141.384-.142.681-.227.68-.227.747-.231.746-.23.67-.2.669-.2.648-.179.648-.18.552-.14.552-.14.315-.065.315-.065.134-.015.135-.015.014.023.015.024-.027.043-.027.043-.149.1-.149.1-.28.142-.281.143-.477.211-.477.211-.511.207-.51.206-.7.267-.7.267-.559.232-.56.232-.483.218-.483.219-.341.173-.34.173-.183.109-.183.11-.106.081-.105.08-.029.053-.028.053.028.2.029.2.011.308.005.317-.058.494-.058.494-.043.234-.044.234-.052.161-.053.161-.034.132-.034.132-.027.258-.027.258.026.269.026.268.045.174.046.173.062.123.062.124.1.136.1.136.136.118.136.118.105.071.105.071.1.048.1.048h2.756l.22.037.219.038.114.035.114.036.046.043.047.043-.008.026-.009.025-.056.027-.055.028-.162.021-.163.021-.43.034-.431.033-.17.033-.17.032-.069.041-.069.04-.007.047-.006.047.072.039.073.04.769.011.77.011.059.039.06.039v.046l-.022.04-.021.039-.092.037-.091.037-.237.024-.236.025-1.314-.026-1.314-.023-.219-.022-.22-.021-.2-.033-.2-.033-.071-.02-.071-.021-.044.148-.044.148-.247.039-.247.04-.264.018-.263.018-.2.046-.2.047-.418.012-.417.013-.269-.036-.259-.043-.192-.013-.192-.013-.175.059-.176.058-.244.128-.245.129-.264.167-.264.167-.282.2-.282.2-.285.222-.286.222-.3.255-.3.255-.181.191-.181.191-.075.158-.075.158-.035.159-.036.159-.023.28-.023.28.014.275.014.274.033.472.033.472-.016 1.068-.03 1.065.025.351.025.351.036.121.036.121.043.088.044.087.119.189.118.189.013.067.013.066-.051.036-.051.035z"/></svg>

<?xml version="1.0" encoding="UTF-8"?>
<svg width="24px" fill="#44739e" height="24px" viewBox="0 0 24 24" version="1.1" xmlns="http://www.w3.org/2000/svg" xmlns:xlink="http://www.w3.org/1999/xlink">
            <path d="M 6.2,21.739 H 6.152 L 6,21.579 5.845,21.419 5.657,21.134 5.468,20.85 5.268,20.499 5.068,20.148 4.752,19.511 4.436,18.874 4.291,18.523 4.146,18.172 4.073,17.963 4,17.755 3.9,17.355 3.8,16.955 3.734,16.626 3.668,16.297 3.613,15.912 3.558,15.528 l -0.025,-0.34 -0.026,-0.34 0.012,-0.281 0.013,-0.281 0.056,-0.1 0.056,-0.1 0.1,-0.089 0.1,-0.089 0.224,-0.133 0.224,-0.134 0.27,-0.128 0.271,-0.128 0.364,-0.155 0.364,-0.154 0.756,-0.289 0.755,-0.29 0.33,-0.133 L 7.731,12.232 7.896,12.149 8.06,12.066 8.11,12.02 8.159,11.973 V 11.915 L 8.119,11.9 8.078,11.863 8,11.836 7.926,11.813 7.335,11.8 6.741,11.785 6.682,11.747 6.623,11.708 V 11.619 L 6.717,11.578 6.81,11.538 7.137,11.49 7.464,11.442 7.587,11.41 7.71,11.378 7.822,11.327 7.933,11.276 8.173,11.035 8.413,10.794 8.6,10.7 8.787,10.61 9.01,10.533 l 0.223,-0.077 0.1,-0.048 0.1,-0.048 0.1,-0.075 0.1,-0.076 L 9.754,10.026 9.875,9.844 10,9.573 10.13,9.3 10.23,9.026 10.33,8.752 10.403,8.499 10.477,8.246 10.504,8.11 10.531,7.973 10.521,7.854 10.511,7.736 10.451,7.613 10.391,7.49 10.268,7.33 10.144,7.171 9.806,6.812 9.468,6.453 9.404,6.353 9.34,6.253 V 6.092 L 9.41,6 9.473,5.912 9.646,5.8 9.818,5.684 10.081,5.558 10.345,5.431 10.707,5.277 11.069,5.123 11.64,4.887 12.211,4.652 12.595,4.511 12.979,4.369 13.66,4.142 l 0.68,-0.227 0.747,-0.231 0.746,-0.23 0.67,-0.2 0.669,-0.2 0.648,-0.179 0.648,-0.18 0.552,-0.14 0.552,-0.14 0.315,-0.065 0.315,-0.065 0.134,-0.015 0.135,-0.015 0.014,0.023 0.015,0.024 -0.027,0.043 -0.027,0.043 -0.149,0.1 -0.149,0.1 -0.28,0.142 -0.281,0.143 -0.477,0.211 -0.477,0.211 -0.511,0.207 -0.51,0.206 -0.7,0.267 -0.7,0.267 -0.559,0.232 -0.56,0.232 -0.483,0.218 -0.483,0.219 -0.341,0.173 -0.34,0.173 -0.183,0.109 -0.183,0.11 -0.106,0.081 -0.105,0.08 -0.029,0.053 -0.028,0.053 0.028,0.2 0.029,0.2 L 12.88,6.683 12.885,7 12.827,7.494 12.769,7.988 12.726,8.222 12.682,8.456 12.63,8.617 12.577,8.778 12.543,8.91 12.509,9.042 12.482,9.3 l -0.027,0.258 0.026,0.269 0.026,0.268 0.045,0.174 0.046,0.173 0.062,0.123 0.062,0.124 0.1,0.136 0.1,0.136 0.136,0.118 0.136,0.118 0.105,0.071 0.105,0.071 0.1,0.048 0.1,0.048 h 2.756 l 0.22,0.037 0.219,0.038 0.114,0.035 0.114,0.036 0.046,0.043 0.047,0.043 -0.008,0.026 -0.009,0.025 -0.056,0.027 -0.055,0.028 -0.162,0.021 -0.163,0.021 -0.43,0.034 -0.431,0.033 -0.17,0.033 -0.17,0.032 -0.069,0.041 -0.069,0.04 -0.007,0.047 -0.006,0.047 0.072,0.039 0.073,0.04 0.769,0.011 0.77,0.011 0.059,0.039 0.06,0.039 v 0.046 l -0.022,0.04 -0.021,0.039 -0.092,0.037 -0.091,0.037 -0.237,0.024 -0.236,0.025 -1.314,-0.026 -1.314,-0.023 -0.219,-0.022 -0.22,-0.021 -0.2,-0.033 -0.2,-0.033 -0.071,-0.02 -0.071,-0.021 -0.044,0.148 -0.044,0.148 -0.247,0.039 -0.247,0.04 -0.264,0.018 -0.263,0.018 -0.2,0.046 -0.2,0.047 -0.418,0.012 -0.417,0.013 L 10.197,12.843 9.938,12.8 9.746,12.787 9.554,12.774 9.379,12.833 9.203,12.891 8.959,13.019 8.714,13.148 8.45,13.315 l -0.264,0.167 -0.282,0.2 -0.282,0.2 -0.285,0.222 -0.286,0.222 -0.3,0.255 -0.3,0.255 -0.181,0.191 -0.181,0.191 -0.075,0.158 -0.075,0.158 -0.035,0.159 -0.036,0.159 -0.023,0.28 -0.023,0.28 0.014,0.275 0.014,0.274 0.033,0.472 0.033,0.472 -0.016,1.068 -0.03,1.065 0.025,0.351 0.025,0.351 0.036,0.121 0.036,0.121 0.043,0.088 0.044,0.087 0.119,0.189 0.118,0.189 0.013,0.067 0.013,0.066 -0.051,0.036 -0.051,0.035 z"/>

</svg>
